X: 1
T: String Quartet in E\b Major opus 1 no 0 mvt 1
C: Franz Joseph Haydn
%%abc-version 2.0
%%abcx-abcm2ps-target-version 5.9.1 (29 Sep 2008)
%%abc-creator hum2abc beta
%%abcx-conversion-date 2021/02/14 14:38:15
%%abc-copyright Copyright (c) 1994, 2000 Center for Computer Assisted Research in the Humanities
%%abc-edited-by Frances Bennion
%%abcx-initial-encoding-date 1997/04/15
%%gracespace 0 6 6
%%humdrum-veritas 1701249921
%%humdrum-veritas-data 1836414717
%%linebreak <none>
%%barnumbers 0
L: 1/8
M: 2/4
N: Derived from op01n0-01.krn
Q: "Presto"
%%staves [1 2 3 4]
V: 1
V: 2
V: 3 clef=alto
V: 4 clef=bass
K: Eb
[V:1]E2 F3/E//F// [I:setbarnb2] |
[V:2]z4 |
[V:3]z4 |
[V:4]z4 |
[V:1]G2 z2 |
[V:2]z4 |
[V:3]z4 |
[V:4]z4 |
[V:1]G2 A3/G//A// |
[V:2]E2 F3/E//F// |
[V:3]z4 |
[V:4]z4 |
[V:1]B2 z2 |
[V:2]G2 z2 |
[V:3]z4 |
[V:4]z4 |
[V:1]e4- |
[V:2]G2 A3/G//A// |
[V:3]E2 F3/E//F// |
[V:4]z4 |
[V:1]ed ef |
[V:2]B2 z2 |
[V:3]G2 z2 |
[V:4]z4 |
[V:1]gz az |
[V:2]z4 |
[V:3]E2 D3/C/ |
[V:4]E,2 F,3/E,//F,// |
[V:1]bz2 e' |
[V:2]z4 |
[V:3]B,2 z2 |
[V:4]G,2 z2 |
[V:1]be' be' |
[V:2]z4 |
[V:3]z4 |
[V:4]z4 |
[V:1]bz Ez |
[V:2]z2 G,z |
[V:3]z2 Cz |
[V:4]z2 C,z |
[V:1]Fz Dz |
[V:2]Cz A,z |
[V:3]A,z F,z |
[V:4]A,,z B,,z |
[V:1]Ez3 |
[V:2]G,z3 |
[V:3]E,z3 |
[V:4]E,z3 |
[V:1]Az Fz |
[V:2]Fz Dz |
[V:3]Cz A,z |
[V:4]A,,z B,,z |
[V:1]E2 z2 |
[V:2]E2 z2 |
[V:3]G,2 z2 |
[V:4]E,2 z2 |
[V:1]D/B/f/B/ fz |
[V:2][B2D2] zd |
[V:3][B,2D2] zB |
[V:4]zB, DB, |
[V:1]=A,/F/e/F/ ez |
[V:2]ez2 e |
[V:3]=Az2 A |
[V:4]zF, =A,F, |
[V:1]B,/F/d/F/ dz |
[V:2]dz2 d |
[V:3]Bz2 B |
[V:4]zB,, D,B,, |
[V:1]=A,/F/c/F/ cz |
[V:2]cz2 c |
[V:3]=Az2 F |
[V:4]zF, =A,F, |
[V:1]D/B/f/B/ fz |
[V:2]d4 |
[V:3]F4 |
[V:4]B,,4 |
[V:1]=A,/F/e/F/ ez |
[V:2]e4 |
[V:3]=A,4 |
[V:4]F,4 |
[V:1]B,/F/d/F/ dz |
[V:2]d4 |
[V:3]F,3 G, |
[V:4]B,4 |
[V:1]=A,/F/c/F/ cz |
[V:2]c4 |
[V:3]=A,4 |
[V:4]F,4 |
[V:1][D3B3] b |
[V:2]B2 z2 |
[V:3]B,2 z2 |
[V:4]B,,B, =A,G, |
[V:1]=ag fe |
[V:2]z4 |
[V:3]z4 |
[V:4]F,E, D,C, |
[V:1]dc Bz |
[V:2]z3 B |
[V:3]z3 G |
[V:4]B,,2 z2 |
[V:1]z4 |
[V:2]=AG FE |
[V:3]FE DC |
[V:4]z4 |
[V:1]z3 d' |
[V:2]DC B,z |
[V:3]B,=A, B,z |
[V:4]z3 B, |
[V:1]c'b =ag |
[V:2]z4 |
[V:3]z4 |
[V:4]=A,G, F,E, |
[V:1]fe dz |
[V:2]z3 F |
[V:3]z3 D |
[V:4]D,C, B,,z |
[V:1]z4 |
[V:2]G=A Bc |
[V:3]EF G=A |
[V:4]z4 |
[V:1]z2 b/b/b/b/ |
[V:2]de f2 |
[V:3]Bc dB |
[V:4]z2 D,B, |
[V:1]E/E/E/E/ F/F/F/F/ |
[V:2]E/E/E/E/ F/F/F/F/ |
[V:3]EB FB |
[V:4]E,B, F,B, |
[V:1]Gz [fDB]z |
[V:2]G/G/G/G/ B/B/B/B/ |
[V:3]GB F/F/F/F/ |
[V:4]G,B, D,D, |
[V:1][gBE]z [E=AC]z |
[V:2]B/B/B/B/ =A/A/A/A/ |
[V:3]E/E/E/E/ C/C/C/C/ |
[V:4]E,E, F,F, |
[V:1][B,2F2B2] z2 |
[V:2]B2 z2 |
[V:3]B,2 z2 |
[V:4]B,,B, B,,2 |
[V:1]f2 e3/d//e// |
[V:2]d2 c3/B//c// |
[V:3]z4 |
[V:4]z4 |
[V:1]d2 z2 |
[V:2]B2 z2 |
[V:3]F2 E3/D//E// |
[V:4]D2 C3/B,//C// |
[V:1]b2 a3/g//a// |
[V:2]g2 f3/=e//f// |
[V:3]D2 z2 |
[V:4]B,2 z2 |
[V:1]g2 z2 |
[V:2]e2 z2 |
[V:3]G2 A3/G//A// |
[V:4]E,2 F,3/E,//F,// |
[V:1]e2 _d3/c//d// |
[V:2]E4 |
[V:3]B2 B,2 |
[V:4]G,2 G,,2 |
[V:1]c2 zc' |
[V:2]A,/E/c/E/ cz |
[V:3]A,C EC |
[V:4]A,,A, CA, |
[V:1]bg e_d |
[V:2]G,/E/_d/E/ dz |
[V:3]zG BG |
[V:4]zE, G,E, |
[V:1]ce zc' |
[V:2]A,/E/c/E/ cz |
[V:3]zA EC |
[V:4]zA,, C,A,, |
[V:1]bg e_d |
[V:2]G,/E/_d/E/ dz |
[V:3]zG BG |
[V:4]zE, G,E, |
[V:1]ce za |
[V:2]A,/E/c/E/ cz |
[V:3]zA EC |
[V:4]zA,, C,A,, |
[V:1]g=e cB |
[V:2]=E/c/g/c/ gz |
[V:3]z=E GE |
[V:4]zC, =E,C, |
[V:1]Ac za |
[V:2]F/c/a/c/ az |
[V:3]zA cA |
[V:4]zF, A,F, |
[V:1]af dA |
[V:2]D/B/a/B/ az |
[V:3]zD FD |
[V:4]zB,, D,B,, |
[V:1]Ge zb |
[V:2]E/B/g/B/ gz |
[V:3]zG BG |
[V:4]zE, G,E, |
[V:1]c'a fe |
[V:2]A,/F/c/F/ cz |
[V:3]zc cC |
[V:4]zA, A,,=A,, |
[V:1]db zB |
[V:2]B,/D/B/D/ BB |
[V:3]B,2 zB |
[V:4]B,,2 zB, |
[V:1]AG FE |
[V:2]AG FE |
[V:3]AG FE |
[V:4]A,G, F,E, |
[V:1]B,B z2 |
[V:2]B,B z2 |
[V:3]B,B z2 |
[V:4]B,,B, z2 |
[V:1]b4 |
[V:2]E2 F3/E//F// |
[V:3]E2 D2 |
[V:4]E,2 B,,2 |
[V:1]be' be' |
[V:2]G2 z2 |
[V:3]E2 z2 |
[V:4]E,,2 z2 |
[V:1]b4 |
[V:2]F2 G3/F//G// |
[V:3]D2 E3/D//E// |
[V:4]B,,2 z2 |
[V:1]bd' bd' |
[V:2]A2 z2 |
[V:3]F2 z2 |
[V:4]B,,2 z2 |
[V:1]b4 |
[V:2]G2 A3/G//A// |
[V:3]E2 F3/E//F// |
[V:4]E,2 z2 |
[V:1]b_d' d'd' |
[V:2]B2 z2 |
[V:3]G2 z2 |
[V:4]E,2 z2 |
[V:1]c'e ee |
[V:2]E2 z2 |
[V:3]A2 z2 |
[V:4]A,2 z2 |
[V:1]be ee |
[V:2]E2 z2 |
[V:3]G2 E2 |
[V:4]G,2 E,2 |
[V:1]df eB |
[V:2]A2 G2 |
[V:3]B,4 |
[V:4]B,4 |
[V:1]df eB |
[V:2]A2 G2 |
[V:3]B,4 |
[V:4]B,,4 |
[V:1]AF GE |
[V:2]D2 E2 |
[V:3]B,2 B,2 |
[V:4]B,,2 B,,2 |
[V:1]B,2 Ez |
[V:2]B,2 Ez |
[V:3]B,2 Ez |
[V:4]B,,2 E,z |
[V:1]Az Gz |
[V:2]Dz Ez |
[V:3]Fz Ez |
[V:4]F,z E,z |
[V:1]F2 z2 |
[V:2]D2 z2 |
[V:3]B,2 z2 |
[V:4]B,2 z2 |
[V:1]D/B/a/B/ az |
[V:2]z3 a |
[V:3]z3 d |
[V:4]zB, DB, |
[V:1]E/B/g/B/ gz |
[V:2]gz2 g |
[V:3]ez2 B |
[V:4]zE, G,E, |
[V:1]B,/F/d/F/ dz |
[V:2]fz2 f |
[V:3]Az2 A |
[V:4]zB,, D,B,, |
[V:1]B,/G/e/G/ ez |
[V:2]ez2 e |
[V:3]Gz2 G |
[V:4]zE,, G,,E,, |
[V:1]D/B/a/B/ az |
[V:2]d4 |
[V:3]A4 |
[V:4]B,,4 |
[V:1]E/B/g/B/ gz |
[V:2]e4 |
[V:3]G4 |
[V:4]E,4 |
[V:1]B,/F/d/F/ dz |
[V:2]A4 |
[V:3]D4 |
[V:4]B,4 |
[V:1]B,/G/e/G/ ez |
[V:2]G4 |
[V:3]E4 |
[V:4]E,4 |
[V:1][G,3E3] e |
[V:2][E2G,2] z2 |
[V:3]E2 z2 |
[V:4]E,E DC |
[V:1]dc BA |
[V:2]z4 |
[V:3]z4 |
[V:4]B,A, G,F, |
[V:1]GF Ez |
[V:2]z3 E |
[V:3]z3 C |
[V:4]E,2 z2 |
[V:1]z4 |
[V:2]DC B,A, |
[V:3]B,A, G,F, |
[V:4]z4 |
[V:1]z3 g |
[V:2]G,A, B,z |
[V:3]E,F, G,z |
[V:4]z3 E |
[V:1]fe dc |
[V:2]z4 |
[V:3]z4 |
[V:4]DC B,A, |
[V:1]BA Gz |
[V:2]z3 B, |
[V:3]z3 G, |
[V:4]G,F, E,z |
[V:1]z4 |
[V:2]CD EF |
[V:3]A,B, CD |
[V:4]z4 |
[V:1]z2 e/e/e/e/ |
[V:2]GA B2 |
[V:3]EF GE |
[V:4]z2 G,,E, |
[V:1]A,/A,/A,/A,/ B,/B,/B,/B,/ |
[V:2]A,/A,/A,/A,/ B,/B,/B,/B,/ |
[V:3]A,E B,E |
[V:4]A,,E, B,,E, |
[V:1]Cz [BG,E]z |
[V:2]C/C/C/C/ E/E/E/E/ |
[V:3]CE B,/B,/B,/B,/ |
[V:4]C,E, G,,G,, |
[V:1][EcA,]z [DB,]z |
[V:2]E/E/E/E/ D/D/D/D/ |
[V:3]A,/A,/A,/A,/ F,/F,/F,/F,/ |
[V:4]A,,A,, B,,B,, |
[V:1][G,2E2] z2 |
[V:2]E2 z2 |
[V:3]E,2 z2 |
[V:4]E,,2 z2 |
[V:1]B2 A3/G//A// |
[V:2]G2 F3/E//F// |
[V:3]B,4 |
[V:4]B,,4 |
[V:1]G2 z2 |
[V:2]E2 z2 |
[V:3]C2 z2 |
[V:4]C,2 z2 |
[V:1][FA,]z [DB,]z |
[V:2]Cz Dz |
[V:3]A,z F,z |
[V:4]A,,z B,,z |
[V:1][E2G,2] z2 |]
[V:2][G,2E2] z2 |]
[V:3]E,2 z2 |]
[V:4]E,,2 z2 |]

